X: 1990
T: Woodland Flowers Schottische
B: australian traditional tunes wiki
M:4/4
L:1/8
R: Schottische
Q: 1/4=100
K:D
V:1 
F>B||A>f e>d A>f e>d|B2e>gb4|a>f g>e f>e B>c|(3dce (3dcB A2 F>B|
A>f e>d A>f e>d|B2e>gb4|a>f g>e f>e B>c|d2f2d2-d>e||
||(3fed A2 (3fed A2|(3gfe B2 (3gfe B2|c>BA2 B>A f>e|(3dcf (3dcB A2-A>e|
(3fed A2 (3fed A2|(3gfe B2 (3gfe B2|c>B A>a g>A f>e|d2d2d2||
% abcbook-tune_id 6342d5be6069b4e1bc0021f1


% abcbook-boost 0
% abcbook-tablature 
% abcbook-transpose 
% abcbook-lastupdated 1665324492849
% abcbook-soundfonts 
% abcbook-repeats 1
% NFF Book 2018

